X:8869
T:La Chasse au Faisan - bourree
C: Stephan Steiner
Z:abc transcription Simon Wascher
N:please mail errors to: simon.wascher@chello.at
M:2/4
L:1/8
K:G
D3/2F/2 Ad|ef dA|cd/2c/2 BA|GA FE|
D3/2F/2 Ad|ef dA|cd/2c/2 Bc/2B/2|A4:|
|:B3/2A/2 GA|Bc dB|AB/2A/2 GA|FD FA|
B3/2A/2 GA|Bc dB|AB/2A/2 GA/2G/2|1F2 FA:|2FD E2|]


